apps/www/public/images/logos/frameworks/dart.svg

<svg width="62" height="62" viewBox="0 0 62 62" fill="none" xmlns="http://www.w3.org/2000/svg">
<path fill-rule="evenodd" clip-rule="evenodd" d="M40.9116 15.3209L35.9043 10.3135C35.2524 9.65849 33.8909 8.875 32.7414 8.875C31.7524 8.875 30.7827 9.07408 30.1533 9.44978L18.6131 15.2199H39.8435C40.2045 15.2199 40.562 15.2541 40.9116 15.3209ZM15.6432 17.8274L9.45173 30.7261C9.20448 31.2495 8.87695 32.1582 8.87695 32.7394C8.87695 33.995 9.42925 35.2794 10.3155 36.1913L15.6753 41.5111C15.654 41.3138 15.6432 41.1147 15.6432 40.9144V17.8274ZM20.7178 46.5904L26.4221 52.2947L26.7111 52.5837H44.5387H44.8277V46.6601H44.8259H21.6433C21.3316 46.6601 21.0223 46.6365 20.7178 46.5904ZM46.0424 44.8194H52.592V44.8001V27.3993L42.9754 17.7827C42.1448 16.952 41.0182 16.4854 39.8435 16.4854H17.5301L17.8007 16.7543L45.718 44.4969L46.0424 44.8194ZM18.1682 43.9552C19.0899 44.8768 20.3399 45.3946 21.6433 45.3946H43.0306H44.8259L43.5525 44.1291L18.1742 18.9096L16.9087 17.652V19.4361V40.9144C16.9087 42.0549 17.3618 43.1487 18.1682 43.9552Z" fill="#7E7E7E"/>
</svg>

<svg xmlns="http://www.w3.org/2000/svg" width="62" height="62" fill="none" viewBox="0 0 62 62"><path fill="#7e7e7e" fill-rule="evenodd" d="m40.912 15.32-5.008-5.007c-.652-.655-2.013-1.438-3.163-1.438-.989 0-1.958.2-2.588.575l-11.54 5.77h21.23q.543 0 1.069.1m-25.269 2.507-6.191 12.9c-.248.523-.575 1.431-.575 2.012 0 1.256.552 2.54 1.438 3.452l5.36 5.32a6 6 0 0 1-.032-.597zm5.075 28.763 5.704 5.705.29.289h18.116V46.66H21.643q-.467 0-.925-.07m25.324-1.77h6.55V27.4l-9.617-9.617a4.43 4.43 0 0 0-3.132-1.298H17.53l.27.27 27.918 27.742zm-27.874-.865a4.92 4.92 0 0 0 3.475 1.44h23.183l-1.273-1.266-25.379-25.22-1.265-1.257v23.262a4.3 4.3 0 0 0 1.26 3.041" clip-rule="evenodd"/></svg>
